X: 25577
T: Market Day, The
R: reel
M: 4/4
K: Dmajor
dcAG FDDE|FEFG AB (3=cBA|dcAG FDDg|1 fdec dfec:|2 fdec d2 (3ABc||
d2fd adfd|cdeg fdec|(3ddd fd adfd|cdeg fddc|
defg aged|cdef g2fg|(3agf (3gfe fded|cdeg fddc||

